X:141
T:Turbit and Venison
M:6/8
L:1/8
B:Thompson's Compleat Collection of 200 Favourite Country Dances, vol. 1 (London, 1757)
Z:Transcribed and edited by Flynn Titford-Mock, 2007
Z:abc's:AK/Fiddler's Companion
K:D
D2A D2c|dcB AGF|G2 B E2B|G2B E2B|F2A D2c|dcB AGF|GAB A,DC|(D3 D3):|
|:A2a A2g|A2f ecA|(f/g/a)f ecA|(f/g/a)f ecA|(B/c/d)B AFD|(B/c/d)B A2g|fed edc|d3 D3:|

